dist/uploads/advantages/1.svg

<svg width="107" height="107" viewBox="0 0 107 107" fill="none" xmlns="http://www.w3.org/2000/svg">
<path d="M4.85378 46.7584H13.8296C14.3605 48.6727 15.1252 50.5144 16.1086 52.2404L9.75565 58.5908C9.45228 58.8942 9.28164 59.3056 9.28164 59.7354C9.28164 60.1652 9.45228 60.5766 9.75565 60.88L16.6193 67.7455C17.2513 68.3762 18.2751 68.3762 18.9071 67.7455L25.2607 61.3913C26.9867 62.3741 28.8265 63.1394 30.7409 63.6697V72.6455C30.7409 73.5391 31.4652 74.2634 32.3588 74.2634H42.0665C42.9601 74.2634 43.6844 73.5391 43.6844 72.6455V63.6697C45.5988 63.1394 47.4386 62.3741 49.1646 61.3913L55.5182 67.7455C56.1603 68.3522 57.1646 68.3522 57.806 67.7455L64.6709 60.88C64.9743 60.5766 65.1449 60.1652 65.1449 59.7354C65.1449 59.3056 64.9743 58.8942 64.6709 58.5908L58.3167 52.2404C59.3001 50.5144 60.0648 48.6727 60.5957 46.7584H69.5715C70.4652 46.7584 71.1895 46.0341 71.1895 45.1404V35.4328C71.1895 34.5397 70.4652 33.8148 69.5715 33.8148H60.5957C60.0648 31.9011 59.3001 30.0594 58.3167 28.3334L64.6697 21.983C64.973 21.6796 65.1437 21.2682 65.1437 20.8384C65.1437 20.4086 64.973 19.9972 64.6697 19.6938L57.806 12.8283C57.174 12.1969 56.1502 12.1969 55.5182 12.8283L49.1646 19.1825C47.4386 18.2004 45.5982 17.435 43.6844 16.9042V7.92773C43.6844 7.0347 42.9601 6.30978 42.0665 6.30978H32.3588C31.4652 6.30978 30.7409 7.0347 30.7409 7.92773V16.9042C28.8272 17.435 26.9867 18.2004 25.2607 19.1825L18.9071 12.8283C18.265 12.2216 17.2608 12.2216 16.6193 12.8283L9.75438 19.6938C9.45102 19.9972 9.28038 20.4086 9.28038 20.8384C9.28038 21.2682 9.45102 21.6796 9.75438 21.983L16.1086 28.3334C15.1252 30.0594 14.3605 31.9011 13.8296 33.8148H4.85378C3.96012 33.8148 3.23584 34.5397 3.23584 35.4328V45.1404C3.23584 46.0341 3.96012 46.7584 4.85378 46.7584ZM6.47173 37.0507H15.0955C15.8558 37.0507 16.5137 36.5217 16.6761 35.7791C17.207 33.356 18.1671 31.0466 19.5107 28.961C19.9209 28.3214 19.8299 27.4815 19.292 26.9436L13.1862 20.8378L17.7632 16.2601L23.8678 22.366C24.4056 22.9051 25.2462 22.9961 25.887 22.5853C27.9733 21.2423 30.282 20.2822 32.7052 19.7507C33.4471 19.5877 33.9768 18.9297 33.9768 18.1694V9.54567H40.4485V18.1694C40.4485 18.9297 40.9782 19.5877 41.7201 19.7507C44.1433 20.2822 46.452 21.2423 48.5383 22.5853C49.1791 22.9961 50.0197 22.9051 50.5575 22.366L56.6621 16.2601L61.2379 20.8378L55.1333 26.9417C54.5942 27.4802 54.5038 28.3208 54.9146 28.961C56.2583 31.0479 57.217 33.3566 57.7473 35.7804C57.9103 36.523 58.5682 37.0526 59.3279 37.0526H67.9536V43.5244H59.3279C58.5682 43.5244 57.9103 44.0534 57.7473 44.796C57.217 47.2191 56.2576 49.5278 54.9146 51.6122C54.5044 52.2524 54.5954 53.0924 55.1333 53.6302L61.2391 59.7348L56.6621 64.3137L50.5575 58.2072C50.0197 57.6687 49.1791 57.5777 48.5383 57.9885C46.4533 59.3322 44.1452 60.2922 41.722 60.8231C40.9788 60.9849 40.4485 61.6435 40.4485 62.4038V71.0275H33.9768V62.4038C33.9768 61.6435 33.4465 60.9849 32.7033 60.8231C30.2801 60.2922 27.972 59.3322 25.887 57.9885C25.2462 57.5777 24.4056 57.6687 23.8678 58.2072L17.7632 64.3137L13.1875 59.736L19.292 53.6315C19.8311 53.0936 19.9215 52.2531 19.5107 51.6122C18.1671 49.5259 17.207 47.2166 16.6761 44.7928C16.5131 44.0502 15.8558 43.5225 15.0955 43.5225H6.47173V37.0507Z" fill="white"/>
<path d="M37.2127 53.2301C44.3614 53.2301 50.1563 47.4359 50.1563 40.2866C50.1563 33.1379 44.3614 27.343 37.2127 27.343C30.0641 27.343 24.2692 33.1379 24.2692 40.2866C24.2767 47.4315 30.0679 53.2226 37.2127 53.2301ZM37.2127 30.5789C42.5734 30.5789 46.9204 34.9259 46.9204 40.2866C46.9204 45.6479 42.5734 49.9943 37.2127 49.9943C31.852 49.9943 27.5051 45.6479 27.5051 40.2866C27.5107 34.9272 31.8533 30.5846 37.2127 30.5789Z" fill="white"/>
<path d="M37.2127 58.084C47.0417 58.084 55.0101 50.1162 55.0101 40.2866C55.0101 30.4576 47.0417 22.4892 37.2127 22.4892C27.3837 22.4892 19.4153 30.4576 19.4153 40.2866C19.4273 50.1112 27.3881 58.0726 37.2127 58.084ZM37.2127 25.7251C45.255 25.7251 51.7742 32.2443 51.7742 40.2866C51.7742 48.3289 45.255 54.8481 37.2127 54.8481C29.1703 54.8481 22.6512 48.3289 22.6512 40.2866C22.66 32.2487 29.1741 25.7339 37.2127 25.7251Z" fill="white"/>
<path d="M95.4586 80.7352V67.7916C95.4586 66.8986 94.7344 66.1737 93.8407 66.1737H90.6048V53.2301C90.6048 52.3371 89.8805 51.6122 88.9869 51.6122H74.4254C73.5317 51.6122 72.8074 52.3371 72.8074 53.2301V66.1737H64.7177C63.824 66.1737 63.0998 66.8986 63.0998 67.7916V80.7352H11.3256C6.85978 80.7409 3.24153 84.3591 3.23584 88.8249V92.0608C3.24153 96.5272 6.85978 100.145 11.3256 100.15H95.4586C99.9244 100.145 103.543 96.5272 103.548 92.0608V88.8249C103.543 84.3591 99.9244 80.7409 95.4586 80.7352ZM92.2227 80.7352H80.8971V69.4096H92.2227V80.7352ZM76.0433 54.8481H87.3689V66.1737H76.0433V54.8481ZM66.3356 69.4096H77.6613V80.7352H66.3356V69.4096ZM100.312 92.0608C100.312 94.7417 98.139 96.9146 95.4586 96.9146H11.3256C8.64521 96.9146 6.47173 94.7417 6.47173 92.0608V88.8249C6.47173 86.1445 8.64521 83.9711 11.3256 83.9711H95.4586C98.139 83.9711 100.312 86.1445 100.312 88.8249V92.0608Z" fill="white"/>
<path d="M53.3922 85.589C50.7118 85.589 48.5383 87.7625 48.5383 90.4428C48.5383 93.1238 50.7118 95.2966 53.3922 95.2966C56.0725 95.2966 58.246 93.1238 58.246 90.4428C58.246 87.7625 56.0725 85.589 53.3922 85.589ZM53.3922 92.0608C52.4985 92.0608 51.7742 91.3365 51.7742 90.4428C51.7742 89.5498 52.4985 88.8249 53.3922 88.8249C54.2858 88.8249 55.0101 89.5498 55.0101 90.4428C55.0101 91.3365 54.2858 92.0608 53.3922 92.0608Z" fill="white"/>
<path d="M37.2127 85.589C34.5324 85.589 32.3589 87.7625 32.3589 90.4428C32.3589 93.1238 34.5324 95.2966 37.2127 95.2966C39.8931 95.2966 42.0665 93.1238 42.0665 90.4428C42.0665 87.7625 39.8931 85.589 37.2127 85.589ZM37.2127 92.0608C36.3191 92.0608 35.5948 91.3365 35.5948 90.4428C35.5948 89.5498 36.3191 88.8249 37.2127 88.8249C38.1064 88.8249 38.8307 89.5498 38.8307 90.4428C38.8307 91.3365 38.1064 92.0608 37.2127 92.0608Z" fill="white"/>
<path d="M69.5716 85.589C66.8912 85.589 64.7177 87.7625 64.7177 90.4428C64.7177 93.1238 66.8912 95.2966 69.5716 95.2966C72.2519 95.2966 74.4254 93.1238 74.4254 90.4428C74.4254 87.7625 72.2519 85.589 69.5716 85.589ZM69.5716 92.0608C68.6779 92.0608 67.9536 91.3365 67.9536 90.4428C67.9536 89.5498 68.6779 88.8249 69.5716 88.8249C70.4652 88.8249 71.1895 89.5498 71.1895 90.4428C71.1895 91.3365 70.4652 92.0608 69.5716 92.0608Z" fill="white"/>
<path d="M21.0333 85.589C18.3529 85.589 16.1794 87.7625 16.1794 90.4428C16.1794 93.1238 18.3529 95.2966 21.0333 95.2966C23.7136 95.2966 25.8871 93.1238 25.8871 90.4428C25.8871 87.7625 23.7136 85.589 21.0333 85.589ZM21.0333 92.0608C20.1396 92.0608 19.4153 91.3365 19.4153 90.4428C19.4153 89.5498 20.1396 88.8249 21.0333 88.8249C21.9269 88.8249 22.6512 89.5498 22.6512 90.4428C22.6512 91.3365 21.9269 92.0608 21.0333 92.0608Z" fill="white"/>
<path d="M85.751 85.589C83.0707 85.589 80.8972 87.7625 80.8972 90.4428C80.8972 93.1238 83.0707 95.2966 85.751 95.2966C88.4314 95.2966 90.6049 93.1238 90.6049 90.4428C90.6049 87.7625 88.4314 85.589 85.751 85.589ZM85.751 92.0608C84.8574 92.0608 84.1331 91.3365 84.1331 90.4428C84.1331 89.5498 84.8574 88.8249 85.751 88.8249C86.6447 88.8249 87.369 89.5498 87.369 90.4428C87.369 91.3365 86.6447 92.0608 85.751 92.0608Z" fill="white"/>
</svg>

<svg width="107" height="107" fill="none" xmlns="http://www.w3.org/2000/svg"><path d="M4.854 46.758h8.976a24.063 24.063 0 0 0 2.279 5.482l-6.353 6.35a1.618 1.618 0 0 0 0 2.29l6.863 6.866a1.62 1.62 0 0 0 2.288 0l6.354-6.355a24.046 24.046 0 0 0 5.48 2.279v8.975c0 .894.724 1.618 1.618 1.618h9.707c.894 0 1.618-.724 1.618-1.618V63.67a24.046 24.046 0 0 0 5.48-2.279l6.354 6.355a1.665 1.665 0 0 0 2.288 0l6.865-6.866a1.618 1.618 0 0 0 0-2.29l-6.354-6.35a24.063 24.063 0 0 0 2.279-5.482h8.976c.893 0 1.617-.724 1.617-1.618v-9.707c0-.893-.724-1.618-1.617-1.618h-8.976a24.07 24.07 0 0 0-2.28-5.482l6.354-6.35a1.619 1.619 0 0 0 0-2.29l-6.864-6.865a1.618 1.618 0 0 0-2.288 0l-6.353 6.355a24.111 24.111 0 0 0-5.48-2.279V7.928c0-.893-.725-1.618-1.619-1.618H32.36c-.894 0-1.618.725-1.618 1.618v8.976a24.113 24.113 0 0 0-5.48 2.279l-6.354-6.355a1.665 1.665 0 0 0-2.288 0l-6.865 6.866a1.618 1.618 0 0 0 0 2.289l6.355 6.35a24.07 24.07 0 0 0-2.28 5.482H4.855c-.894 0-1.618.725-1.618 1.618v9.707c0 .894.724 1.618 1.618 1.618zm1.618-9.707h8.623c.76 0 1.419-.53 1.581-1.272a20.817 20.817 0 0 1 2.835-6.818c.41-.64.319-1.48-.219-2.017l-6.106-6.106 4.577-4.578 6.105 6.106c.538.54 1.378.63 2.019.22a20.849 20.849 0 0 1 6.818-2.835 1.62 1.62 0 0 0 1.272-1.582V9.546h6.472v8.623c0 .76.53 1.419 1.271 1.582a20.849 20.849 0 0 1 6.818 2.834 1.62 1.62 0 0 0 2.02-.219l6.104-6.106 4.576 4.578-6.105 6.104a1.617 1.617 0 0 0-.218 2.019 20.81 20.81 0 0 1 2.832 6.82 1.62 1.62 0 0 0 1.58 1.272h8.627v6.471h-8.626c-.76 0-1.418.53-1.58 1.272a20.793 20.793 0 0 1-2.833 6.816c-.41.64-.32 1.48.218 2.018l6.106 6.105-4.577 4.579-6.105-6.107a1.619 1.619 0 0 0-2.019-.218 20.8 20.8 0 0 1-6.816 2.834 1.618 1.618 0 0 0-1.273 1.58v8.625h-6.472v-8.624c0-.76-.53-1.42-1.274-1.58a20.8 20.8 0 0 1-6.816-2.835 1.619 1.619 0 0 0-2.02.218l-6.104 6.107-4.576-4.578 6.105-6.104c.54-.538.63-1.379.219-2.02a20.824 20.824 0 0 1-2.835-6.82 1.617 1.617 0 0 0-1.58-1.27H6.471v-6.471z" fill="#fff"/><path d="M37.213 53.23c7.148 0 12.943-5.794 12.943-12.943 0-7.15-5.795-12.944-12.943-12.944-7.149 0-12.944 5.795-12.944 12.944.008 7.145 5.799 12.936 12.944 12.943zm0-22.651c5.36 0 9.707 4.347 9.707 9.708 0 5.36-4.347 9.707-9.707 9.707-5.361 0-9.708-4.346-9.708-9.707a9.717 9.717 0 0 1 9.708-9.708z" fill="#fff"/><path d="M37.213 58.084c9.829 0 17.797-7.968 17.797-17.797 0-9.83-7.968-17.798-17.797-17.798-9.83 0-17.798 7.969-17.798 17.798.012 9.824 7.973 17.786 17.798 17.797zm0-32.359c8.042 0 14.561 6.52 14.561 14.562s-6.519 14.561-14.561 14.561c-8.043 0-14.562-6.52-14.562-14.561.009-8.038 6.523-14.553 14.562-14.562zm58.246 55.01V67.792c0-.893-.725-1.618-1.618-1.618h-3.236V53.23c0-.893-.725-1.618-1.618-1.618H74.425c-.893 0-1.618.725-1.618 1.618v12.944h-8.09c-.893 0-1.617.725-1.617 1.618v12.943H11.326a8.1 8.1 0 0 0-8.09 8.09v3.236a8.098 8.098 0 0 0 8.09 8.089h84.133a8.098 8.098 0 0 0 8.089-8.09v-3.235a8.099 8.099 0 0 0-8.09-8.09zm-3.236 0H80.897V69.41h11.326v11.325zm-16.18-25.887H87.37v11.326H76.043V54.848zM66.336 69.41H77.66v11.325H66.336V69.41zm33.976 22.65a4.853 4.853 0 0 1-4.853 4.855H11.326a4.854 4.854 0 0 1-4.854-4.854v-3.236a4.854 4.854 0 0 1 4.854-4.854h84.133a4.854 4.854 0 0 1 4.853 4.854v3.236z" fill="#fff"/><path d="M53.392 85.589a4.854 4.854 0 1 0 .001 9.709 4.854 4.854 0 0 0 0-9.709zm0 6.472a1.618 1.618 0 1 1 0-3.236 1.618 1.618 0 0 1 0 3.236zm-16.179-6.472a4.854 4.854 0 1 0 0 9.709 4.854 4.854 0 0 0 0-9.709zm0 6.472a1.618 1.618 0 1 1 0-3.236 1.618 1.618 0 0 1 0 3.236zm32.359-6.472a4.854 4.854 0 1 0 0 9.709 4.854 4.854 0 0 0 0-9.709zm0 6.472a1.618 1.618 0 1 1 0-3.236 1.618 1.618 0 0 1 0 3.236zm-48.539-6.472a4.854 4.854 0 1 0 .001 9.709 4.854 4.854 0 0 0 0-9.709zm0 6.472a1.618 1.618 0 1 1 0-3.236 1.618 1.618 0 0 1 0 3.236zm64.718-6.472a4.854 4.854 0 1 0 .001 9.709 4.854 4.854 0 0 0-.001-9.709zm0 6.472a1.618 1.618 0 1 1 0-3.236 1.618 1.618 0 0 1 0 3.236z" fill="#fff"/></svg>
